X:1
T:Sechs Lieder
T:Die Minnesänger
T:Robert Schumann
T:Heinrich Heine
T:Die Minnesänger
T:Op. 33,2
T:CPDL - Creative Commons Attribution Non Commercial 3.0
T:CPDL - Creative Commons Attribution Non Commercial 3.0
T:CPDL - Creative Commons Attribution Non Commercial 3.0
T:CPDL - Creative Commons Attribution Non Commercial 3.0
T:CPDL - Creative Commons Attribution Non Commercial 3.0
T:CPDL - Creative Commons Attribution Non Commercial 3.0
C:Robert Schumann
Z:Heinrich Heine
Z:CPDL - Creative Commons Attribution Non Commercial 3.0
%%score [ 1 2 3 4 ]
L:1/8
Q:1/4=106
M:2/4
K:C
V:1 treble-8 nm="Tenor\n1"
V:2 treble-8 nm="Tenor\n2"
V:3 bass nm="Bass\n1"
V:4 bass nm="Bass\n2"
V:1
"^Leicht, kurz"!p! cd e>e | ee fe |{/g} fe{/g} fe | dB c2 | cd e>e | ee fe | fe fe | d/f/B c2 || %8
w: Zu dem Wett- ge-|san- ge schrei- ten|Min- ne- sän- ger|jetzt her- bei,|ei, das gibt ein|selt- sam Strei- ten,|ein gar selt- sa-|mes _ Tur- nei!|
[M:3/4]!f! d>d d3 d | dg (g2 ^f)e | d>^d e3 c | Bc =d2 dd | (e2 d)d d>d | !>!g2 ^f2 f>f | %14
w: Phan- ta- sie, die|schäu- mend wil- * de,|ist des Min- ne-|sän- gers Pferd, und die|Kunst _ dient ihm zum|Schil- de, und das|
 a3[Q:1/4=96]"^ritard." !>!a !>!a!>!a | (^f2 =f2)[Q:1/4=106]"^a tempo" e>e |][M:2/4]!p! ee fe | %17
w: Wort, das ist sein|Schwert. _ Hüb- sche|Da- men schau- en|
{/g} fe{/g} fe | fe dB | c2 e>e | ee ee | fe fe |{/g} fe d/f/B | c2!mf! B>B ||[M:3/4] B3 B Be | %25
w: mun- ter vom be-|tep- pich- ten Bal-|kon, doch die|Rech- te ist nicht|drun- ter mit des|Sie- ges Myr- * ten-|kron'. An- dre|Leu- te, wenn sie|
 e2 ^d2 cc | B3 B c>A | G2 z2 BB | c3 B BB | c2 B2 BB | d3[Q:1/4=96]"^ritard." A (3ABc | B6 || %32
w: sprin- gen in die|Schran- ken, sind ge-|sund, a- ber|Min- ne- sän- ger|brin- gen dort schon|mit die To- * des-|wund'.|
[M:2/4][Q:1/4=106]"^a tempo"!p! cd e>e | ee fe |{/g} fe{/g} fe | dB c2 | cd e>e | ee fe | %38
w: Zu dem Wett- ge-|san- ge schrei- ten|Min- ne- sän- ger|jetzt her- bei,|ei, das gibt ein|selt- sam Strei- ten,|
 fe{/g} fe | d/f/B c2 |!p! gg ee | ff ee | cc ff | dd e2 |!pp! gg ee | ff ee | cc ff | dd e2 | %48
w: ein gar selt- sa-|mes _ Tur- nei,|ei, das gibt ein|selt- sam Strei- ten,|ein gar selt- sa-|mes Tur- nei,|ei, das gibt ein|selt- sam Strei- ten,|ein gar selt- sa-|mes Tur- nei,|
 d z e z | d z e z | d3 d | !>!e3 e | f2!pp! dd | cc BB | c2 z2 |!p! G2 z G | !fermata!c4 |] %57
w: ei, ei,|ei, ei,|ei, ei,|ei, das|gibt ein gar|selt- sa- mes Tur-|nei,|ei, ei,|ei!|
V:2
!p! cc c>c | cc cc | dc dc | AG G2 | cc c>c | cc cc | dc dc | AG G2 ||[M:3/4]!f! B>B B3 B | %9
w: |||||||||
 BB c3 c | c>c c3 A | GA B2 BB | (c2 B)B B>B | !>!e2 d2 d>d | e3 !>!e !>!e!>!e | d4 c>c |] %16
w: |||||||
[M:2/4]!p! cc cc | dc dc | dc AG | G2 c>c | cc cc | dc dc | dc AG | G2!mf! G>G ||[M:3/4] G3 G GB | %25
w: |||||||||
 B2 B2 AA | A3 A A>^F | E2 z2 GG | A3 G GG | A2 G2 GG | A3 ^F (3FGA | G6 ||[M:2/4]!p! cc c>c | %33
w: ||||||||
 cc cc | dc dc | AG G2 | cc c>c | cc cc | dc dc | AG G2 |!p! d z _B z | Ad d z | AA dd | BB cc | %44
w: |||||||ei, ei,|ei, ei, ei,|ei, das gibt ein|selt- sam Strei- ten,|
!pp! d z _B z | Ad d z | AA dd | BB c2 | BB cc | BB cc | B3 B | !>!G3 A | A2!pp! AA | GG GG | %54
w: ein gar|selt- sa- mes,|ein gar selt- sa-|mes Tur- nei,|ei, das gibt ein|selt- sam Strei- ten,|||||
 G2 z2 |!p! G2 z G | !fermata!G4 |] %57
w: |||
V:3
!p! E,F, G,>G, | G,G, A,G, | G,G, G,G, | F,F, E,2 | E,F, G,>G, | G,G, A,G, | G,G, G,G, | %7
w: Zu dem Wett- ge-|san- ge schrei- ten|Min- ne- sän- ger|jetzt her- bei,|ei, das gibt ein|selt- sam Strei- ten,|ein gar selt- sa-|
 F,F, E,2 ||[M:3/4]!f! D,>D, D,3 D, | D,D, D,3 E, | ^F,>F, F,F, G,A, | B,2 z2 G,G, | %12
w: mes Tur- nei!|Phan- ta- sie, die|schäu- mend wil- de,|ist des Min- ne- sän- gers|Pferd, und die|
 (G,2 G,)G, G,>G, | !>!B,2 B,2 B,>B, | ^C3 !>!C !>!C!>!C | (D3 B,) =C>G, |][M:2/4]!p! G,G, A,G, | %17
w: Kunst _ dient ihm zum|Schil- de, und das|Wort, das ist sein|Schwert. _ Hüb- sche|Da- men schau- en|
 G,G, G,G, | G,G, F,F, | E,2 G,>G, | G,G, G,G, | G,G, G,G, | G,G, F,F, | E,2 z2 || %24
w: mun- ter vom be-|tep- pich- ten Bal-|kon, doch die|rech- te ist nicht|drun- ter mit des|Sie- ges Myr- ten-|kron'.|
[M:3/4]!mf! G,>G, G,G, G,G, | A,2 A,2 ^F,F, | ^F,3 F, ^D,>F, | G,2 z2 E,E, | E,3 E, E,E, | %29
w: An- dre Leu- te, wenn sie|sprin- gen in die|Schran- ken, sind ge-|sund, a- ber|Min- ne- sän- ger|
 E,2 E,2 E,E, | ^F,3 D, D,D, | D,6 ||[M:2/4]!p! E,F, G,>G, | G,G, A,G, | G,G, G,G, | F,F, E,2 | %36
w: brin- gen dort schon|mit die To- des-|wund'.|Zu dem Wett- ge-|san- ge schrei- ten|Min- ne- sän- ger|jetzt her- bei,|
 E,F, G,>G, | G,G, A,G, | G,G, G,G, | F,F, E,2 |!p! G, z G, z | F,A, ^G, z | A,A, A,A, | %43
w: ei, das gibt ein|selt- sam Strei- ten,|ein gar selt- sa-|mes Tur- nei,||||
 G,G, G,G, |!pp! G, z G, z | F,A, ^G, z | A,A, A,A, | G,G, G,2 | G,G, G,G, | G,G, G,G, | G,3 G, | %51
w: |||||||ei, ei,|
 !>!_B,3 A, | A,2!pp! F,F, | E,E, D,D, | E,2 z2 |!p! E,2 z E, | !fermata!E,4 |] %57
w: ei, das|gibt ein gar|selt- sa- mes Tur-|nei,|ei, ei,|ei!|
V:4
!p! C,C, C,>C, | C,C, C,C, | B,,C, B,,C, | F,,G,, C,2 | C,C, C,>C, | C,C, C,C, | B,,C, B,,C, | %7
w: |||||||
 F,,G,, C,2 ||[M:3/4]!f! G,,>G,, G,,3 G,, | G,,G,, A,,3 G,, | ^F,,>D, D,D, E,^F, | G,2 z2 G,G, | %12
w: |||||
 (C,2 G,)G, G,>G, | !>!E,2 B,,2 B,>B, | A,3 !>!A, !>!A,!>!A, | (D,2 G,2) C,>C, |] %16
w: ||||
[M:2/4]!p! C,C, C,C, | B,,C, B,,C, | B,,C, F,,G,, | C,2 C,>C, | C,C, C,C, | B,,C, B,,C, | %22
w: ||||||
 B,,C, F,,G,, | C,2 z2 ||[M:3/4]!mf! E,>E, E,E, E,E, | ^F,2 F,2 E,E, | ^D,3 D, B,,>D, | %27
w: |||||
 E,2 z2 E,E, | A,,3 E, E,E, | A,,2 E,2 E,E, | D,3 D, D,D, | (G,,4 G,2) ||[M:2/4]!p! C,C, C,>C, | %33
w: ||||||
 C,C, C,C, | B,,C, B,,C, | F,,G,, C,2 | C,C, C,>C, | C,C, C,C, | B,,C, B,,C, | F,,G,, C,2 | %40
w: |||||||
!p! B,,B,, ^C,C, | D,D, E,E, | F,F, D,D, | G,G, C,2 |!pp! B,,B,, ^C,C, | D,D, E,E, | F,F, D,D, | %47
w: ei, das gibt ein|selt- sam Strei- ten,|ein gar selt- sa-|mes Tur- nei,|ei, das gibt ein|selt- sam Strei- ten,|ein gar selt- sa-|
 G,G, C,2 | G, z C, z | G, z C, z | G,3 G,, | !>!C,3 ^C, | D,2!pp! F,,F,, | G,,G,, G,,G,, | %54
w: mes Tur- nei,|ei, ei,|ei, ei,|||||
 C,2 z2 |!p! E,2 z E, | !fermata!C,4 |] %57
w: |||

